X:1
T:Ego sum pauper - Croce
T:James Gibb editions
T:#
%%score [ 1 { 2 | 3 } 4 ]
L:1/8
Q:1/4=200
M:none
K:F
V:1 treble nm="Alto" snm="A"
V:2 treble-8 nm="Tenor I" snm="T"
V:3 treble-8 
V:4 bass nm="Bass" snm="B"
V:1
"^Ego sum pauper""^Giovanni Croce\n(1557-1609)""^Psalm 69(68): 30-31" D8 D4 D4 | _E8 E4 E4 | D16 | %3
w: E- go sum|pau- per et|do-|
 D16 | z4 G8 ^F4 | (G4 D4) D8 | z4 G8 F4 | _E8 D4 D4- | D2 D2 C4 D4 D4 | D16 | z4 G6 G2 ^F4 | %11
w: lens:|sa- lus|tu\- * a,|sa- lus|tu- a De\-|* us su- sce- pit|me,|De- us su-|
 G4 D4 (D6 C2 | B,2 G,2) G8 ^F4 | G8 z8 | G4 _E4 C4 F4- | F4 F4 _E8 | _E4 D4 F6 F2 || %17
w: sce- pit, su\- *|* * sce- pit|me.|Lau- da- bo no\-|* men De-|i cum can- ti-|
[M:3/1][Q:1/4=400] F16 z8 | G16 F8 | E16 E8 |[M:3/1][Q:1/4=400][Q:1/4=400][Q:1/4=400] F16 F8 | %21
w: co:|et ma-|gni- fi-|ca- bo|
 _E16 E8 | _E8 D16 | D16 z8 | G16 F8 | E16 E8 | F16[Q:1/4=395] F8 |[Q:1/4=381] _E16[Q:1/4=368] E8 | %28
w: e- um|in lau-|de,|et ma-|gni- fi-|ca- bo|e- um|
[Q:1/4=360] G8[Q:1/4=352] (G8[Q:1/4=343] ^F8) |[Q:1/4=340] G24 |] %30
w: in lau\- *|de.|
V:2
 B8 G4 A4 | B8 B4 (c4 | B4 A2 G2) A8 | G4 B8 A4 | (G6 A2 B2 c2 d4- | d2 c2 B2 A2 B4) A4 | %6
w: E- go sum|pau- per et|* * * do-|lens: sa- lus|tu\- * * * *|* * * * * a|
 (G6 A2 B2 c2 d4) | G4 G4 (B6 A2 | G6 A2 B4) A4 | G4 B6 B2 A4 | (B4 A2 G2 B4) A4 | G8 z4 d4- | %12
w: De\- * * * *|us su- sce\- *|* * * pit|me, De- us su-|sce\- * * * pit|me, De\-|
 d2 d2 c4 d4 d4 | d4 d4 B4 G4 | B4 c4 A8 | d8 B8- | B4 B4 c6 c2 ||[M:3/1] B8 d8 c8 | B16 d8 | %19
w: * us su- sce- pit|me. Lau- da- bo|no- men De\-|* i|* cum can- ti-|co: et ma-|gni- fi-|
 G16 c8 |[M:3/1][K:treble-8] c16 d8 | (G12 A4 B4 G4 | c8) A16 | G8 d8 c8 | B16 d8 | G16 G8 | %26
w: ca- bo|e- um|in * * *|* lau-|de, et ma-|gni- fi-|ca- bo|
 (A4 B4 c4 A4 B8) | (B12 A4 G8) | _e8 d16 | d24 |] %30
w: e\- * * * *|um * *|in lau-|de.|
V:3
 G8 B4 A4 | G8 G4 (G4- | G4 ^F2 E2) F8 | B8 z4 d4- | d4 c4 (B4 A4) | G8 z4 d4- | d4 c4 (B4 A4 | %7
w: E- go sum|pau- per et|* * * do-|lens: sa-|* lus tu\- *|a, sa\-|* lus tu\- *|
 c8) F4 B4- | B4 G8 ^F4 | G4 G4 D4 d4- | d2 d2 c4 (d6 c2 | B6 AG B4 A4 | G6 A2 B4) A4 | G8 d4 B4 | %14
w: * a De\-|* us su-|sce- pit me, De-|* us su- sce\- *||* * * pit|me. Lau- da-|
 G8 F4 F4 | B8 G8 | G4 B8 A4 ||[M:3/1] B8 B8 A8 | G16 A8 | c16 G8 | %20
w: bo no- men|De- i|cum can- ti-|co: et ma-|gni- fi-|ca- bo|
[M:3/1][K:treble-8] A4 B4 c4 A4 B8 | (B12 A4 G8) | G8 (G8 ^F8) | G8 B8 A8 | G16 A8 | c16 c8 | %26
w: e\- * * * *|um * *|in lau\- *|de, et ma-|gni- fi-|ca- bo|
 c16 d8 | (G12 A4 B8 | c8) A16 | G24 |] %30
w: e- um|in * *|* lau-|de.|
V:4
 G,8 G,4 F,4 | _E,8 E,4 C,4 | D,16 | G,,4 G,8 F,4 | _E,8 D,8 | z4 G,8 F,4 | _E,8 D,8 | %7
w: E- go sum|pau- per et|do-|lens: sa- lus|tu- a,|sa- lus|tu- a|
 C,8 B,,4 B,,4 | _E,4 E,4 D,8 | z4 G,6 G,2 ^F,4 | G,4 _E,4 D,8 | z4 G,6 G,2 ^F,4 | G,4 _E,4 D,8 | %13
w: De- us su-|sce- pit me,|De- us su-|sce- pit me,|De- us su-|sce- pit me.|
 z8 z4 G,4 | _E,4 C,4 F,2 E,2 D,2 C,2 | B,,4 B,,4 _E,8 | _E,4 G,4 F,6 F,2 ||[M:3/1] B,,16 z8 | %18
w: Lau-|da- bo no\- * * *|* men De-|i cum can- ti-|co:|
 _E,16 D,8 | C,16 C,8 |[M:3/1] F,16 B,,8 | _E,16 E,8 | C,8 D,16 | G,,16 z8 | _E,16 D,8 | C,16 C,8 | %26
w: et ma-|gni- fi-|ca- bo|e- um|in lau-|de,|et ma-|gni- fi-|
 F,16 B,,8 | _E,16 E,8 | C,8 D,16 | G,,24 |] %30
w: ca- bo|e- um|in lau-|de.|

